src/icons/dpt.svg

<svg width="24" height="24" viewBox="0 0 24 24" fill="none" xmlns="http://www.w3.org/2000/svg">
<path d="M8 10V9H9V7.26756C9.29417 7.09739 9.63571 7 10 7C11.1046 7 12 7.89543 12 9V10C12 11.1046 11.1046 12 10 12C8.89543 12 8 11.1046 8 10Z" fill="black"/>
<path d="M14 10V9H15V7.26756C15.2942 7.09739 15.6357 7 16 7C17.1046 7 18 7.89543 18 9V10C18 11.1046 17.1046 12 16 12C14.8954 12 14 11.1046 14 10Z" fill="black"/>
<path d="M10 14H16L13.6667 16H12.3333L10 14Z" fill="black"/>
<path fill-rule="evenodd" clip-rule="evenodd" d="M3.55805 21.564C4.04741 22.3905 4.81785 23.0133 5.72856 23.3187C6.40059 23.544 7.04188 23.5176 7.56194 23.453C8.04642 23.3928 8.6177 23.2703 9.21866 23.1415L16.9433 21.4862C17.3477 21.3996 17.7495 21.3136 18.0892 21.2141C18.4681 21.1032 18.8999 20.941 19.3209 20.6411C19.9152 20.2177 20.3824 19.6398 20.6718 18.97C20.8769 18.4955 20.945 18.0393 20.9741 17.6456C21.0001 17.2926 21.0001 16.8817 21 16.4681V6.71756C21.0001 6.27567 21.0001 5.83935 20.9716 5.46615C20.9398 5.05171 20.8653 4.56905 20.6381 4.07196C20.3191 3.37408 19.8062 2.78266 19.1604 2.36823C18.7005 2.07304 18.2332 1.93096 17.8274 1.84095C17.462 1.75989 17.0301 1.69824 16.5926 1.63581L8.86637 0.532093C8.29617 0.450574 7.74953 0.372423 7.28613 0.346396C6.78449 0.31822 6.17546 0.334188 5.54641 0.579559C4.68701 0.914785 3.96988 1.53675 3.51649 2.34011C3.18463 2.92814 3.08269 3.52879 3.03964 4.02938C2.99988 4.49179 2.99994 5.04398 3.00001 5.61997L3.00001 18.1143C2.99994 18.7289 2.99988 19.3131 3.04254 19.7995C3.08834 20.3215 3.19695 20.9541 3.55805 21.564ZM16.2525 3.60753L8.65254 2.52186C7.39265 2.34188 6.76271 2.25189 6.27321 2.44283C5.84351 2.61044 5.48495 2.92142 5.25825 3.3231C5.00001 3.78068 5.00001 4.41702 5.00001 5.6897V18.0417C5.00001 19.3964 5.00001 20.0738 5.27903 20.545C5.52371 20.9583 5.90893 21.2697 6.36429 21.4224C6.88355 21.5965 7.54587 21.4545 8.87049 21.1707L16.4705 19.5421C17.3725 19.3488 17.8235 19.2522 18.1605 19.0122C18.4576 18.8005 18.6912 18.5115 18.8359 18.1766C19 17.7969 19 17.3357 19 16.4132V6.77537C19 5.7913 19 5.29926 18.819 4.90329C18.6596 4.55435 18.4031 4.25864 18.0802 4.05142C17.7138 3.81628 17.2267 3.7467 16.2525 3.60753Z" fill="black"/>
</svg>

<svg xmlns="http://www.w3.org/2000/svg" width="24" height="24" fill="none"><path fill="currentColor" d="M8 10V9h1V7.268A2 2 0 0 1 12 9v1a2 2 0 1 1-4 0m6 0V9h1V7.268A2 2 0 0 1 18 9v1a2 2 0 1 1-4 0m-4 4h6l-2.333 2h-1.334z"/><path fill="currentColor" fill-rule="evenodd" d="M3.558 21.564a4 4 0 0 0 2.17 1.755c.673.225 1.314.199 1.834.134.484-.06 1.056-.183 1.657-.311l7.724-1.656c.405-.086.806-.172 1.146-.272.38-.11.81-.273 1.232-.573a4 4 0 0 0 1.35-1.671c.206-.474.274-.93.303-1.324.026-.353.026-.764.026-1.178v-9.75c0-.442 0-.879-.028-1.252a4 4 0 0 0-.334-1.394 4 4 0 0 0-1.478-1.704 4 4 0 0 0-1.333-.527 17 17 0 0 0-1.234-.205L8.866.532C8.296.451 7.75.372 7.286.346 6.784.318 6.176.334 5.546.58a4 4 0 0 0-2.03 1.76c-.331.588-.433 1.189-.476 1.69C3 4.491 3 5.043 3 5.62v12.494c0 .615 0 1.2.043 1.685.045.523.154 1.155.515 1.765M16.253 3.608l-7.6-1.086c-1.26-.18-1.89-.27-2.38-.08a2 2 0 0 0-1.015.881C5 3.781 5 4.417 5 5.69v12.352c0 1.354 0 2.032.279 2.503a2 2 0 0 0 1.085.877c.52.174 1.182.032 2.506-.251l7.6-1.629c.902-.193 1.354-.29 1.69-.53a2 2 0 0 0 .676-.835c.164-.38.164-.841.164-1.764V6.775c0-.984 0-1.476-.181-1.872a2 2 0 0 0-.739-.852c-.366-.235-.853-.304-1.827-.443" clip-rule="evenodd"/></svg>
